X: 65
M: 4/4
L: 1/8
K: G
[B2D2]BB B2"a."G2 | [AD]GFE DFAB | [c2E2] [cE][cE] c2F2 | AGFE DFA2 |
[d2D2][dD][dD] [d2D2][d2D2] | e2f2 g2e2 | d2c2 ((3BcB)A2 | "b."GGGG [G2G,2] :: "c."Bc |
[d2D2][dD][dD] [d2D2]e2 | dcBA G2[BD]d | [g2B2]gg g2g2 | agfe d2B2 |
c2aa aaa2 | B2gg ggg2 | B2cd e2f2 | gdef [gB]z :|
P: Var:
"a."FA || "b."G3G || "c."((3ABc) |]


